src/assets/img/games/other.svg

<svg xmlns:xlink="http://www.w3.org/1999/xlink" height="58.5" width="59" xmlns="http://www.w3.org/2000/svg"><use height="58.45" width="59" xlink:href="#a"/><defs><g id="a"><path d="m47.9 16.1 7.1 1.4-4.15 5.95 6.15 3.8-5.9 4.15 4.55 5.6-6.95 1.95 2.3 6.8-7.25-.6-.1 7.3-6.55-3.1-2.65 6.75-5.1-5.15-4.75 5.5-3.1-6.55-6.35 3.45-.6-7.2-7.2 1.15 1.85-7.05-7.1-1.35L6.2 33 0 29.15l5.95-4.1L1.4 19.4l7-1.95-2.3-6.8 7.2.6.1-7.25 6.65 3L22.6.3l5.2 5.1L32.55 0l3.05 6.45 6.35-3.4.65 7.15 7.15-1.05-1.85 6.95m-18.1 12h-5.5q1.45-4.15 3.45-7.75 1.2 1.95 2.05 7.75m3-6.5q-2-4.8-5.55-5.25-2-.35-4.1 4.1-1.2 2.5-3.3 7.55-.55 1-1.3 5.7-.7 4.5-.7 6.45v1.7q.35 1.5 1.9 1.5.9 0 2.25-6.75.5-2.45 1.15-4.75h7.15l.2 2.15q.85 8.85 3.25 8.85 1.85 0 1.85-2.3l-.8-6.25q-.8-5.1-.7-5.95.35-2.8-1.3-6.75" fill="#fff" fill-rule="evenodd" transform="translate(1 1)"/><path d="M32.8 21.6q1.65 3.95 1.3 6.75-.1.85.7 5.95l.8 6.25q0 2.3-1.85 2.3-2.4 0-3.25-8.85l-.2-2.15h-7.15q-.65 2.3-1.15 4.75-1.35 6.75-2.25 6.75-1.55 0-1.9-1.5v-1.7q0-1.95.7-6.45.75-4.7 1.3-5.7 2.1-5.05 3.3-7.55 2.1-4.45 4.1-4.1 3.55.45 5.55 5.25m-3 6.5q-.85-5.8-2.05-7.75-2 3.6-3.45 7.75h5.5" fill="#f09" fill-rule="evenodd" transform="translate(1 1)"/><path d="m48.9 17.1 7.1 1.4-4.15 5.95 6.15 3.8-5.9 4.15 4.55 5.6-6.95 1.95 2.3 6.8-7.25-.6-.1 7.3-6.55-3.1-2.65 6.75-5.1-5.15-4.75 5.5-3.1-6.55-6.35 3.45-.6-7.2-7.2 1.15 1.85-7.05-7.1-1.35L7.2 34 1 30.15l5.95-4.1L2.4 20.4l7-1.95-2.3-6.8 7.2.6.1-7.25 6.65 3 2.55-6.7 5.2 5.1L33.55 1l3.05 6.45 6.35-3.4.65 7.15 7.15-1.05-1.85 6.95Z" fill="none" stroke="#f09" stroke-linecap="round" stroke-linejoin="round" stroke-width="2"/></g></defs></svg>

<?xml version="1.0" encoding="UTF-8" standalone="no"?>
<svg xmlns:xlink="http://www.w3.org/1999/xlink" height="58.5px" width="59.0px" xmlns="http://www.w3.org/2000/svg">
  <g transform="matrix(1.0, 0.0, 0.0, 1.0, 1.0, 1.0)">
    <use height="58.45" transform="matrix(1.0, 0.0, 0.0, 1.0, -1.0, -1.0)" width="59.0" xlink:href="#shape0"/>
  </g>
  <defs>
    <g id="shape0" transform="matrix(1.0, 0.0, 0.0, 1.0, 1.0, 1.0)">
      <path d="M47.9 16.1 L55.0 17.5 50.85 23.45 57.0 27.25 51.1 31.4 55.65 37.0 48.7 38.95 51.0 45.75 43.75 45.15 43.65 52.45 37.1 49.35 34.45 56.1 29.35 50.95 24.6 56.45 21.5 49.9 15.15 53.35 14.55 46.15 7.35 47.3 9.2 40.25 2.1 38.9 6.2 33.0 0.0 29.15 5.95 25.05 1.4 19.4 8.4 17.45 6.1 10.65 13.3 11.25 13.4 4.0 20.05 7.0 22.6 0.3 27.8 5.4 32.55 0.0 35.6 6.45 41.95 3.05 42.6 10.2 49.75 9.15 47.9 16.1 M29.8 28.1 L24.3 28.1 Q25.75 23.95 27.75 20.35 28.95 22.3 29.8 28.1 M32.8 21.6 Q30.8 16.8 27.25 16.35 25.25 16.0 23.15 20.45 21.95 22.95 19.85 28.0 19.3 29.0 18.55 33.7 17.85 38.2 17.85 40.15 L17.85 41.85 Q18.2 43.35 19.75 43.35 20.65 43.35 22.0 36.6 22.5 34.15 23.15 31.85 L30.3 31.85 30.5 34.0 Q31.35 42.85 33.75 42.85 35.6 42.85 35.6 40.55 L34.8 34.3 Q34.0 29.2 34.1 28.35 34.45 25.55 32.8 21.6" fill="#ffffff" fill-rule="evenodd" stroke="none"/>
      <path d="M32.8 21.6 Q34.45 25.55 34.1 28.35 34.0 29.2 34.8 34.3 L35.6 40.55 Q35.6 42.85 33.75 42.85 31.35 42.85 30.5 34.0 L30.3 31.85 23.15 31.85 Q22.5 34.15 22.0 36.6 20.65 43.35 19.75 43.35 18.2 43.35 17.85 41.85 L17.85 40.15 Q17.85 38.2 18.55 33.7 19.3 29.0 19.85 28.0 21.95 22.95 23.15 20.45 25.25 16.0 27.25 16.35 30.8 16.8 32.8 21.6 M29.8 28.1 Q28.95 22.3 27.75 20.35 25.75 23.95 24.3 28.1 L29.8 28.1" fill="#ff0099" fill-rule="evenodd" stroke="none"/>
      <path d="M47.9 16.1 L55.0 17.5 50.85 23.45 57.0 27.25 51.1 31.4 55.65 37.0 48.7 38.95 51.0 45.75 43.75 45.15 43.65 52.45 37.1 49.35 34.45 56.1 29.35 50.95 24.6 56.45 21.5 49.9 15.15 53.35 14.55 46.15 7.35 47.3 9.2 40.25 2.1 38.9 6.2 33.0 0.0 29.15 5.95 25.05 1.4 19.4 8.4 17.45 6.1 10.65 13.3 11.25 13.4 4.0 20.05 7.0 22.6 0.3 27.8 5.4 32.55 0.0 35.6 6.45 41.95 3.05 42.6 10.2 49.75 9.15 47.9 16.1 Z" fill="none" stroke="#ff0099" stroke-linecap="round" stroke-linejoin="round" stroke-width="2.0"/>
    </g>
  </defs>
</svg>
